optimized/outline/home.svg

<svg xmlns="http://www.w3.org/2000/svg" fill="none" viewBox="0 0 24 24" stroke-width="2" stroke="currentColor" aria-hidden="true">
  <path stroke-linecap="round" stroke-linejoin="round" d="M3 12L5 10M5 10L12 3L19 10M5 10V20C5 20.5523 5.44772 21 6 21H9M19 10L21 12M19 10V20C19 20.5523 18.5523 21 18 21H15M9 21C9.55228 21 10 20.5523 10 20V16C10 15.4477 10.4477 15 11 15H13C13.5523 15 14 15.4477 14 16V20C14 20.5523 14.4477 21 15 21M9 21H15"/>
</svg>

<svg xmlns="http://www.w3.org/2000/svg" fill="none" viewBox="0 0 24 24" stroke-width="2" stroke="currentColor" aria-hidden="true">
  <path stroke-linecap="round" stroke-linejoin="round" d="M3 12l2-2m0 0l7-7 7 7M5 10v10a1 1 0 001 1h3m10-11l2 2m-2-2v10a1 1 0 01-1 1h-3m-6 0a1 1 0 001-1v-4a1 1 0 011-1h2a1 1 0 011 1v4a1 1 0 001 1m-6 0h6"/>
</svg>
